X: 5970
T: Camping With Roosters
R: reel
M: 4/4
K: Amajor
|:ceed eecA|BAAG ABcd|ceed eecA|BAAG A2 E2|
ceed eecA|BAAG ABcd|eaga fedc|BAAG A4:|
|:"Cock a doodle doo!"eaag a2 e2|=cBAc BA B2|=c2 cA EA c2|BAAG A4|
"Cock a doodle doo!"eaag a2 e2|=cBAc BA B2|eaga fedc|BAAG A4:|

